X: 28582
T: Murphy's Weather Eye
R: jig
M: 6/8
K: Dmajor
f/g/|:aba f2e|dcB A2F|DFA dcd|fee e2 f/g/|
aba f2e|dcB A2F|DFA cBc|edd d3:|
|:DFA dcB|ABG F2E|DFA dcd|fee e3|
DFA dcB|ABG F2E|1 DFA cBc|edd d3:|
[2aba f2e|dcB A2F|DFA cBc|edd d3||

